X:1
T:Title
%%score { ( 1 3 4 ) | 2 }
L:1/8
Q:1/4=110
M:4/4
K:G
V:1 treble nm="Grand Piano"
V:3 treble 
V:4 treble 
V:2 treble 
V:1
 d2 B2 BcBA | G2 D2 D2 EF | G4 [^DF]4 | z4 ^G4 | e2 c2 cdcB | A2 E2 E2 FG | B2 A2 E2 FG | %7
w: C.~Harold~Lowden * * * * *|||||||
 A4 [Fd]4 | d2 B2 BcBA | G2 D2 D2 EF | G4 [=Fd]4 | [Ee]6 [G,E][A,EF] | %12
w: |||||
 [_B,EG]2 [B,EG]2 [B,EG]2 [A,EG][EA] | [DB]2 [GB]2 [GB]2 [GB][Gc] | [Fd]2 [Fc]2 [FB]2 [FA]2 | %15
w: |||
[M:1/4] G2 |[M:3/4] D2 E2 F2 |[M:4/4] z2 dc BcBA | G2 G2 D2 E2 | z2 ed cdcB | A2 D2 F2 A2 | %21
w: ||||||
 z2 ed z d z B | [Ac]2[K:bass] [F,CF]2 [F,CE]2 [F,CD]2 | [E_B]8 | B2 D2 E2 F2 | z2 dc BcBA | %26
w: |||||
 G2 D2 G2 F2 | z2 ed cBcd | e2 [Fe]2 [Ge]2 [A^d]2 | [Bd]2 B2 B2 B2 | [E^c]2 c2 c2 c2 | [Ac]8 | %32
w: ||||||
[M:1/4] B2 |] %33
w: |
V:2
 [G,B,G]2 [G,DG]2 [G,DG][G,EG][G,DG][K:bass][G,CD] | [G,B,D]2 [G,B,]2 [G,B,]2 [G,A,C][G,CD] | %2
 [G,B,D]4 [B,,A,]4 | [C,G,]4 [E,D]4 | [A,CA]2 [A,EA]2 [A,EA][A,=FA][A,EA][A,DE] | %5
 [A,CE]2 [A,C]2 [A,C]2 [A,CE][A,CE] | [A,^CG]2[K:bass] [A,CE]2 [G,A,C]2 [F,A,C][E,A,C] | %7
 [D,F,D]4 [D,C]4 | [G,B,G]2 [G,DG]2 [G,DG][G,EG][G,DG][K:bass][G,CD] | %9
 [G,B,D]2 [G,B,]2 [G,B,]2 [G,A,C][G,CD] | [G,B,D]4 [B,,G,]4 | [C,G,]6 C,C, | C,2 C,2 C,2 C,[C,G,] | %13
 [D,G,]2 [D,D]2 [D,D]2 [D,B,][D,B,] | [D,A,]2 [D,A,]2 [D,D]2 [D,C]2 |[M:1/4] [G,B,]2 |[M:3/4] z6 | %17
[M:4/4] G,,2 [D,G,B,]2 [D,G,B,]2 [D,G,B,]2 | B,,2 [D,G,B,]2 [D,G,B,]2 [D,G,B,]2 | %19
 A,,2 [D,F,C]2 [D,F,C]2 [D,F,C]2 | D,,2 [D,F,C]2 [D,F,C]2 [D,F,C]2 | %21
 A,,2 [D,F,C]2 [D,F,C]2 [D,F,]2 | D,,2 D,2 D,2 D,2 | G,,2 [C,G,]4 [C,G,]2 | [D,G,B,D]2 z2 z4 | %25
 G,,2 [D,G,B,]2 [D,G,B,]2 [D,G,B,]2 | B,,2 [D,G,B,]2 [D,G,B,]2 [D,G,B,]2 | %27
 C,2 [E,G,C]2 [E,G,C]2 [E,G,C]2 | C,2 [E,G,C]2 [E,G,C]2 [^D,G,C]2 | %29
 [D,,D,]2 [D,G,B,D]2 [D,G,B,^C]2 [D,G,B,D]2 | %30
 G,,2[K:treble] [G,A,^CF]2 [G,A,CG]2[K:bass] [G,A,CE]2 | D,,2 [D,F,C]2 [D,F,C]2 [D,F,C]2 | %32
[M:1/4][K:treble] [G,B,G]2 |] %33
V:3
 x8 | x8 | x8 | E8 | x8 | x8 | x8 | x8 | x8 | x8 | x8 | x8 | x8 | x8 | x8 |[M:1/4] x2 |[M:3/4] x6 | %17
[M:4/4] G8 | x8 | F8- | F2 z2 z4 | c4 c4 | x2[K:bass] x6 | z2 _B,4 B,2 | x8 | G8 | x8 | E8- | %28
 E2 z2 z4 | x8 | x8 | z2 D2 E2 F2 |[M:1/4] x2 |] %33
V:4
 x8 | x8 | x8 | x8 | x8 | x8 | x8 | x8 | x8 | x8 | x8 | x8 | x8 | x8 | x8 |[M:1/4] x2 |[M:3/4] x6 | %17
[M:4/4] x8 | x8 | x8 | x8 | z4 z2 C2 | x2[K:bass] x6 | x8 | x8 | x8 | x8 | x8 | x8 | x8 | x8 | x8 | %32
[M:1/4] x2 |] %33

